X:1
T:Title
%%score { ( 1 4 ) | ( 2 3 ) }
L:1/8
M:9/8
K:Bb
V:1 treble nm="Grand Piano"
V:4 treble 
V:2 bass 
V:3 bass 
V:1
 z3 z3[Q:1/4=100] [EGB][EG][^Fc] | [B,GB]3 [B,EG]3 .[B,DF]2 [_A,DF] | %2
 [G,B,E]3 [B,EG]3 [EGB][EG][^Fc] | [GB]3 G3 GFE |[M:3/4] [DF]6 |[M:3/8] [DF][_D=E][=DF] | %6
[M:9/8] [F_A]3 [DF]3 FGA | [^Fc]3 [GB]3 cde | B3 e3 [EG]_A[_A,DF] |[M:3/4] [G,B,E]6 |[M:3/8] z3 | %11
[M:9/8] f3 d3 z3 | e6 z3 | c3 G3 z3 | B6 z3 | e3 B3 z3 | c6 z3 | E6 z3 |[M:3/4] E6 |] %19
V:2
 z3 z3 z B,[E,_A,] | E,3 E,3 z GB,, | E,3 E,3 z B,[E,A,] | [E,B,]3 [E,B,E]3 [F,A,C]2 [F,A,C] | %4
[M:3/4] [B,,B,]6 |[M:3/8] [B,,B,]2 [B,,B,] |[M:9/8] z3 z3 .B,3 | z3 z3 .[A,E]3[K:treble] | %8
 [B,EG]3 [B,G]3[K:bass] z DB,, |[M:3/4] E,6 |[M:3/8][K:treble] BAB | %11
[M:9/8][K:bass] [B,,B,]2 [B,,B,] [B,,B,]2 [B,,B,] z[K:treble] d[K:bass]B,, | %12
 [E,B,]2 [E,B,] [E,B,]3 z3 | [C,G,]2 [C,G,] [C,C]2 [C,C] [F,A,E]2 [F,E] | %14
 [B,,F,]2 [B,,G,] [B,,_A,]3 z3 | z3 z3 .B,3 | [_A,E]2 A, A,3 z3 | %17
 [B,,G,B,]2 [B,,G,] [B,,G,]3 [B,,_A,]3 |[M:3/4] [E,B,]2 [E,_A,] [E,G,]3 |] %19
V:3
 z3 z3 .E,3 | z3 z3 .B,,3 | z3 z3 .E,3 | x9 |[M:3/4] x6 |[M:3/8] x3 | %6
[M:9/8] [B,,B,]3 [B,,B,]3 [_A,D][G,E][F,B,D] | [E,A,]3 [E,B,]3 z B,[K:treble][A,CE] | %8
 z3 z3[K:bass] .[B,,B,]3 |[M:3/4] x6 |[M:3/8][K:treble] x3 | %11
[M:9/8][K:bass] z3 z3 .[B,,B,]3[K:treble][K:bass] | x9 | x9 | x9 | %15
 [E,B,]2 [E,B,] [E,E]2 [E,E] [E,E]-[E,_A,E][E,G,] | x9 | x9 |[M:3/4] x6 |] %19
V:4
 x9 | x9 | x9 | x9 |[M:3/4] x6 |[M:3/8] x3 |[M:9/8] x9 | x9 | x9 |[M:3/4] x6 |[M:3/8] x3 | %11
[M:9/8] _A2 A A2 A .[Ac]2 [B,AB] | G2 G G3 G^FG | E2 E E2 E FGA | D2 E F3 BAB | G2 G G2 G GFE | %16
 z2 E E3 e2 e | z2 B, B,3 [DF]3 |[M:3/4] z2 C B,3 |] %19

